src/stories/assets/thriving_park_logo.svg

<svg width="156" height="144" viewBox="0 0 156 144" fill="none" xmlns="http://www.w3.org/2000/svg">
<path d="M114.868 10.9626C114.867 9.79906 114.447 8.69135 113.671 7.84268C113.143 7.26593 112.473 6.53748 111.76 5.76752C113.304 4.78862 114.482 3.26445 114.856 1.37963C114.998 0.669777 114.455 0 113.749 0H97.0012C87.1339 0 79.1341 8.2019 79.1341 18.3187H56.8114C52.7857 18.3187 49.2179 20.1763 46.7612 23.0572V22.8983C39.987 22.8983 34.4775 28.5471 34.4775 35.4924V43.5069C34.4775 44.772 35.477 45.7967 36.7109 45.7967H38.9443C40.1783 45.7967 41.1777 44.772 41.1777 43.5069V35.4924C41.1777 33.6005 42.1367 32.0019 43.52 30.9586C43.4907 31.3278 43.4111 31.6813 43.4111 32.0577C43.4111 36.0134 45.0638 39.5512 47.6741 42.0585L44.0839 51.8762C43.4476 53.6152 43.3425 55.5114 43.7824 57.3131L47.2511 71.5402C47.3714 72.0355 47.6499 72.4754 48.0423 72.7897C48.4346 73.104 48.9182 73.2748 49.4161 73.2747H58.6233C60.0764 73.2747 61.1428 71.875 60.7896 70.4296L57.1171 55.3653L60.4449 46.2647L79.1453 49.4604V70.9849C79.1453 72.25 80.1447 73.2747 81.3787 73.2747H90.3122C91.5462 73.2747 92.5456 72.25 92.5456 70.9849V45.5419C95.3011 42.6525 97.0124 38.7082 97.0124 34.3475C97.0124 34.316 97.0026 34.2874 97.0012 34.2559V19.591L99.2346 20.6085L101.873 26.0039C102.913 28.132 105.369 29.0881 107.525 28.2036L112.068 26.3403C112.898 26.0002 113.609 25.4129 114.11 24.6541C114.61 23.8954 114.878 23.0001 114.877 22.084L114.868 10.9626ZM105.935 13.739C104.701 13.739 103.701 12.7143 103.701 11.4492C103.701 10.184 104.701 9.15934 105.935 9.15934C107.169 9.15934 108.168 10.184 108.168 11.4492C108.168 12.7143 107.169 13.739 105.935 13.739Z" fill="#2B2D42"/>
<path d="M141.68 97.1749H125.727L111.057 70.8504C110.861 70.4999 110.578 70.2087 110.238 70.0061C109.897 69.8035 109.51 69.6969 109.116 69.6969H99.9733C98.4895 69.6969 97.4189 71.1524 97.8265 72.615L104.67 97.1749H90.3125L84.2824 88.9315C83.8608 88.3548 83.1978 88.0156 82.4957 88.0156H76.9136C75.4605 88.0156 74.3941 89.4152 74.7472 90.8607L79.1456 106.334L74.7472 121.808C74.3941 123.253 75.4605 124.653 76.9136 124.653H82.4957C83.1992 124.653 83.8608 124.314 84.2824 123.737L90.3125 115.494H104.67L97.8265 140.052C97.4189 141.515 98.4895 142.972 99.9733 142.972H109.116C109.918 142.972 110.657 142.531 111.055 141.818L125.727 115.494H141.68C146.615 115.494 155.081 111.393 155.081 106.334C155.081 101.275 146.615 97.1749 141.68 97.1749Z" fill="#2B2D42"/>
<path fill-rule="evenodd" clip-rule="evenodd" d="M34.41 143.559C53.4141 143.559 68.82 127.764 68.82 108.28C68.82 88.7952 53.4141 73 34.41 73C15.4059 73 0 88.7952 0 108.28C0 127.764 15.4059 143.559 34.41 143.559ZM34.2774 135.086C48.7329 135.086 60.4514 123.071 60.4514 108.25C60.4514 93.4295 48.7329 81.4149 34.2774 81.4149C19.822 81.4149 8.10349 93.4295 8.10349 108.25C8.10349 123.071 19.822 135.086 34.2774 135.086ZM48.9588 119.314C46.031 123.424 41.5117 126.266 36.3305 126.888L36.3305 116.625C37.8794 116.196 39.2641 115.357 40.367 114.228L48.9588 119.314ZM52.4687 108.267C52.4687 110.606 52.0511 112.844 51.2881 114.909L42.7703 109.867C42.9406 109.154 43.0309 108.41 43.0309 107.644C43.0309 106.788 42.9182 105.959 42.7072 105.172L50.7823 100.392C51.8647 102.787 52.4687 105.455 52.4687 108.267ZM36.3305 89.6461C41.0561 90.2132 45.2311 92.6275 48.1502 96.166L40.1869 100.88C39.1149 99.8416 37.7962 99.0684 36.3305 98.6623V89.6461ZM31.4447 116.585L31.4447 126.808C25.1137 125.833 19.8448 121.532 17.386 115.694L19.2723 119.044L27.4967 114.176C28.5748 115.297 29.9283 116.138 31.4447 116.585ZM25.1273 109.794L16.972 114.622C16.2749 112.637 15.895 110.498 15.895 108.267C15.895 105.562 16.4537 102.991 17.4592 100.668L25.1885 105.244C24.9897 106.009 24.8837 106.814 24.8837 107.644C24.8837 108.384 24.968 109.104 25.1273 109.794ZM27.675 100.931L20.0224 96.4013C22.8295 92.8844 26.8584 90.4324 31.4447 89.7267L31.4447 98.7021C30.0108 99.1249 28.7225 99.9005 27.675 100.931ZM34.1074 111.819C36.4202 111.819 38.2952 109.896 38.2952 107.525C38.2952 105.154 36.4202 103.231 34.1074 103.231C31.7945 103.231 29.9195 105.154 29.9195 107.525C29.9195 109.896 31.7945 111.819 34.1074 111.819Z" fill="#2B2D42"/>
</svg>

<svg width="156" height="143" viewBox="0 0 156 143" fill="none" xmlns="http://www.w3.org/2000/svg">
	<path
		d="M114.869 10.963a4.613 4.613 0 0 0-1.198-3.12 507.185 507.185 0 0 0-1.911-2.075c1.544-.98 2.722-2.504 3.096-4.388.142-.71-.401-1.38-1.107-1.38H97.001c-9.867 0-17.867 8.202-17.867 18.319H56.812c-4.026 0-7.594 1.857-10.05 4.738v-.159c-6.775 0-12.284 5.65-12.284 12.594v8.015c0 1.265 1 2.29 2.233 2.29h2.234c1.233 0 2.233-1.025 2.233-2.29v-8.015c0-1.892.959-3.49 2.342-4.533-.03.369-.109.722-.109 1.099a13.82 13.82 0 0 0 4.263 10l-3.59 9.818a9.371 9.371 0 0 0-.301 5.437L47.25 71.54c.12.495.4.935.791 1.25.393.314.876.485 1.374.485h9.208c1.453 0 2.519-1.4 2.166-2.845l-3.673-15.065 3.328-9.1 18.7 3.195v21.525c0 1.265 1 2.29 2.234 2.29h8.933c1.234 0 2.234-1.025 2.234-2.29V45.542a16.173 16.173 0 0 0 4.467-11.195c0-.031-.01-.06-.012-.091V19.59l2.234 1.017 2.638 5.396c1.04 2.128 3.497 3.084 5.652 2.2l4.543-1.864a4.491 4.491 0 0 0 2.042-1.686 4.657 4.657 0 0 0 .767-2.57l-.008-11.121Zm-8.934 2.776c-1.234 0-2.233-1.025-2.233-2.29 0-1.265.999-2.29 2.233-2.29s2.233 1.025 2.233 2.29c0 1.265-.999 2.29-2.233 2.29ZM141.68 97.175h-15.953L111.056 70.85a2.264 2.264 0 0 0-.818-.844 2.195 2.195 0 0 0-1.122-.31h-9.143c-1.484 0-2.554 1.456-2.147 2.919l6.844 24.56H90.312l-6.03-8.243a2.216 2.216 0 0 0-1.786-.916h-5.582c-1.454 0-2.52 1.4-2.167 2.845l4.398 15.473-4.398 15.474c-.353 1.445.713 2.845 2.166 2.845h5.583c.703 0 1.365-.339 1.786-.916l6.03-8.243h14.358l-6.844 24.558c-.407 1.463.663 2.92 2.147 2.92h9.143c.801 0 1.541-.441 1.939-1.154l14.672-26.324h15.953c4.935 0 13.401-4.101 13.401-9.16s-8.466-9.16-13.401-9.16Z"
		fill="#fff" />
	<ellipse cx="34.408" cy="106.406" rx="34.408" ry="35.278" fill="#fff" />
	<ellipse cx="34.408" cy="106.406" rx="26.172" ry="26.834" fill="#1A7B88" />
	<ellipse cx="34.339" cy="106.477" rx="18.286" ry="18.748" fill="#fff" />
	<ellipse cx="34.338" cy="106.477" rx="9.073" ry="9.302" fill="#1A7B88" />
	<path fill="#1A7B88" d="M36.712 126.513h-4.886V87.729h4.886z" />
	<path fill="#1A7B88" d="m17.211 99.13 2.443-4.338 32.61 19.303-2.443 4.338z" />
	<path fill="#1A7B88" d="m48.883 94.791 2.443 4.338-31.672 18.748-2.443-4.338z" />
	<ellipse cx="34.338" cy="106.477" rx="4.188" ry="4.293" fill="#fff" />
</svg>
